flaticon/casino-gambling/poker-3.svg

<svg xmlns="http://www.w3.org/2000/svg" width="32" height="32" viewBox="0 0 24 24">
    <path d="M 19.601562 0 L 4.398438 0 C 3.71875 0 3.199219 0.519531 3.199219 1.199219 L 3.199219 22.800781 C 3.199219 23.480469 3.71875 24 4.398438 24 L 19.601562 24 C 20.28125 24 20.800781 23.480469 20.800781 22.800781 L 20.800781 1.199219 C 20.800781 0.519531 20.28125 0 19.601562 0 Z M 20 22.800781 C 20 23.039062 19.839844 23.199219 19.601562 23.199219 L 4.398438 23.199219 C 4.160156 23.199219 4 23.039062 4 22.800781 L 4 1.199219 C 4 0.960938 4.160156 0.800781 4.398438 0.800781 L 19.601562 0.800781 C 19.839844 0.800781 20 0.960938 20 1.199219 Z M 20 22.800781"/>
    <path d="M16.121094 12.601562C15.640625 12.320312 15.160156 12.160156 14.679688 12.121094 14.921875 11.601562 14.960938 11 14.878906 10.441406 14.679688 9.238281 13.761719 8.28125 12.558594 8.039062 11.679688 7.839844 10.761719 8.078125 10.078125 8.640625 9.398438 9.199219 9 10.039062 9 10.921875 9 11.320312 9.078125 11.71875 9.238281 12.078125 8.761719 12.121094 8.28125 12.28125 7.839844 12.558594 6.960938 13.121094 6.398438 13.960938 6.359375 14.878906 6.320312 15.679688 6.601562 16.441406 7.160156 17.039062 7.71875 17.640625 8.558594 18 9.398438 18 9.71875 18 10.039062 17.960938 10.320312 17.839844 10.238281 18.558594 10.078125 19.160156 10 19.359375 9.960938 19.519531 10 19.679688 10.078125 19.800781 10.199219 19.921875 10.320312 20 10.480469 20L13.480469 20C13.640625 20 13.800781 19.921875 13.878906 19.839844 13.960938 19.71875 14 19.558594 13.960938 19.398438 13.878906 19.160156 13.71875 18.558594 13.640625 17.878906 13.921875 18 14.238281 18.039062 14.558594 18.039062 15.398438 18.039062 16.199219 17.71875 16.800781 17.078125 17.359375 16.480469 17.640625 15.71875 17.601562 14.921875 17.519531 14 17 13.160156 16.121094 12.601562zM16.238281 16.480469C15.800781 16.921875 15.199219 17.199219 14.558594 17.199219 14.160156 17.199219 13.761719 17.078125 13.441406 16.839844L12.800781 16.398438 12.800781 17.199219C12.800781 17.960938 12.960938 18.71875 13.078125 19.199219L10.921875 19.199219C11.039062 18.71875 11.199219 17.960938 11.199219 17.199219L11.199219 16.398438 10.601562 16.839844C10.28125 17.078125 9.878906 17.199219 9.480469 17.199219 8.839844 17.199219 8.238281 16.960938 7.800781 16.480469 7.398438 16.039062 7.199219 15.480469 7.238281 14.921875 7.28125 14.28125 7.71875 13.640625 8.359375 13.238281 8.878906 12.921875 9.441406 12.839844 10 12.960938L11.199219 13.238281 10.398438 12.320312C10.078125 11.921875 9.878906 11.441406 9.878906 10.921875 9.878906 10.238281 10.199219 9.640625 10.679688 9.238281 11.199219 8.839844 11.839844 8.679688 12.480469 8.800781 13.320312 9 14 9.679688 14.160156 10.558594 14.28125 11.199219 14.078125 11.839844 13.679688 12.320312L12.878906 13.238281 14.078125 12.960938C14.679688 12.800781 15.238281 12.878906 15.761719 13.238281 16.398438 13.679688 16.800781 14.28125 16.839844 14.921875 16.839844 15.480469 16.640625 16.039062 16.238281 16.480469zM7.601562 7.199219C7.839844 7.199219 8 7.039062 8 6.800781L8 6.398438C8 6.160156 7.839844 6 7.601562 6 7.359375 6 7.199219 6.160156 7.199219 6.398438L5.855469 6.398438C6.316406 5.574219 6.859375 4.800781 7.480469 4.078125L7.558594 3.960938C7.601562 3.960938 7.601562 3.921875 7.601562 3.921875 7.921875 3.441406 7.960938 2.839844 7.679688 2.359375 7.441406 1.878906 6.960938 1.601562 6.398438 1.601562 5.519531 1.601562 4.800781 2.320312 4.800781 3.199219 4.800781 3.441406 4.960938 3.601562 5.199219 3.601562 5.441406 3.601562 5.601562 3.441406 5.601562 3.199219 5.601562 2.761719 5.960938 2.398438 6.398438 2.398438 6.761719 2.398438 6.921875 2.640625 6.960938 2.761719 7.039062 2.921875 7.121094 3.199219 6.960938 3.480469L6.878906 3.601562C6.164062 4.46875 5.515625 5.445312 4.976562 6.460938 4.867188 6.527344 4.800781 6.648438 4.800781 6.800781 4.800781 6.992188 4.902344 7.132812 5.070312 7.183594 5.101562 7.199219 5.140625 7.199219 5.199219 7.199219zM7.601562 7.199219"/>
</svg>

<svg xmlns="http://www.w3.org/2000/svg" width="32" height="32" viewBox="0 0 24 24">
    <path d="M19.602 0H4.398C3.718 0 3.2.52 3.2 1.2v21.6c0 .68.52 1.2 1.2 1.2h15.203c.68 0 1.199-.52 1.199-1.2V1.2c0-.68-.52-1.2-1.2-1.2zM20 22.8c0 .24-.16.4-.398.4H4.398c-.238 0-.398-.16-.398-.4V1.2c0-.24.16-.4.398-.4h15.204c.238 0 .398.16.398.4zm0 0"/>
    <path d="M16.121 12.602c-.48-.282-.96-.442-1.441-.48.242-.52.28-1.122.199-1.68a2.936 2.936 0 0 0-2.32-2.403 2.91 2.91 0 0 0-2.48.602A2.96 2.96 0 0 0 9 10.92c0 .4.078.798.238 1.157a3.17 3.17 0 0 0-1.398.48c-.88.563-1.442 1.403-1.48 2.32-.04.802.242 1.563.8 2.161.559.602 1.399.961 2.238.961.32 0 .641-.04.922-.16-.082.719-.242 1.32-.32 1.52-.04.16 0 .32.078.44.121.122.242.2.402.2h3c.16 0 .32-.078.399-.16.082-.121.121-.281.082-.442a8.125 8.125 0 0 1-.32-1.52c.28.122.597.161.918.161.84 0 1.64-.32 2.242-.96.558-.599.84-1.36.8-2.157-.081-.922-.601-1.762-1.48-2.32zm.117 3.878a2.382 2.382 0 0 1-1.68.72c-.398 0-.796-.122-1.117-.36l-.64-.442v.801c0 .762.16 1.52.277 2h-2.156c.117-.48.277-1.238.277-2v-.8l-.597.44a1.89 1.89 0 0 1-1.122.36c-.64 0-1.242-.238-1.68-.719-.402-.44-.6-1-.562-1.558.043-.64.48-1.281 1.121-1.684A2.19 2.19 0 0 1 10 12.961l1.2.277-.802-.918c-.32-.398-.52-.879-.52-1.398 0-.684.321-1.281.802-1.684a2.246 2.246 0 0 1 1.8-.437c.84.199 1.52.879 1.68 1.758.121.64-.082 1.28-.48 1.761l-.801.918 1.2-.277c.6-.16 1.16-.082 1.683.277.636.442 1.039 1.043 1.078 1.684 0 .558-.2 1.117-.602 1.558zm0 0M7.602 7.2C7.84 7.2 8 7.04 8 6.8v-.402C8 6.16 7.84 6 7.602 6c-.243 0-.403.16-.403.398H5.855a14.155 14.155 0 0 1 1.625-2.32l.079-.117c.043 0 .043-.04.043-.04.32-.48.359-1.081.078-1.562-.239-.48-.72-.757-1.282-.757-.878 0-1.597.718-1.597 1.597 0 .242.16.403.398.403.242 0 .403-.16.403-.403 0-.437.359-.8.796-.8.364 0 .524.242.563.363.078.16.16.437 0 .718l-.082.122A17.243 17.243 0 0 0 4.977 6.46a.382.382 0 0 0-.176.34c0 .191.101.332.27.383.03.015.07.015.128.015zm0 0"/>
</svg>
